Custom/az/dpad.svg

<svg xmlns="http://www.w3.org/2000/svg" width="178.527" height="103.928" viewBox="0 0 178.527 103.928">
  <g id="dpad" transform="translate(432.018 -743.282)">
    <g id="g26">
      <g id="g6">
        <g id="path2" fill="none">
          <path d="M-307.5,763.9c1.4-2,1.2-2.9,1.2-2.9s.2-.9-1.2-2.9-15-13.6-15.7-14-28.5-2.2-31.4,1.3-2.6,15.6-2.6,15.6-.3,12.1,2.6,15.6,30.7,1.7,31.4,1.3S-308.9,765.9-307.5,763.9Z" stroke="none"/>
          <path d="M -339.4263916015625 776.7182006835938 C -332.5597534179688 776.7182006835938 -325.6939392089844 776.2460327148438 -324.0322265625 776.02734375 C -323.1133728027344 775.2994995117188 -320.1990661621094 772.8563232421875 -316.6969909667969 769.7914428710938 C -310.0960388183594 764.0146484375 -309.2169799804688 762.8651733398438 -309.1384582519531 762.7531127929688 C -308.5368957519531 761.8937377929688 -308.3584899902344 761.379638671875 -308.3077697753906 761.1845092773438 L -308.3487548828125 760.9999389648438 L -308.3077697753906 760.8154296875 C -308.3584899902344 760.620361328125 -308.5368957519531 760.1062622070313 -309.1384582519531 759.2469482421875 C -309.2169494628906 759.1348876953125 -310.0960083007813 757.9854125976563 -316.6969299316406 752.20849609375 C -320.1990966796875 749.1435546875 -323.1133422851563 746.7003784179688 -324.0321960449219 745.9725341796875 C -325.6941528320313 745.7538452148438 -332.5610961914063 745.2816772460938 -339.4288940429688 745.2816772460938 C -350.8216552734375 745.2816772460938 -352.884521484375 746.5592041015625 -353.0863342285156 746.70849609375 C -353.5245666503906 747.2607421875 -354.5275573730469 749.0992431640625 -354.9914855957031 754.6436157226563 C -355.2692565917969 757.9630126953125 -355.2013244628906 760.9213256835938 -355.2006225585938 760.9503784179688 L -355.1994018554688 760.9999389648438 L -355.2006225585938 761.0494995117188 C -355.2013549804688 761.0786743164063 -355.269775390625 764.0051879882813 -354.9943542480469 767.3218994140625 C -354.5318603515625 772.8922119140625 -353.5259399414063 774.7374267578125 -353.0863647460938 775.2913208007813 C -352.8843078613281 775.4407348632813 -350.8206787109375 776.718017578125 -339.4273071289063 776.7182006835938 L -339.4263916015625 776.7182006835938 M -339.4289245605469 778.7182006835938 C -346.3860473632813 778.7180786132813 -353.2384948730469 778.2431030273438 -354.6000061035156 776.5999145507813 C -357.5 773.0999145507813 -357.2000122070313 760.9999389648438 -357.2000122070313 760.9999389648438 C -357.2000122070313 760.9999389648438 -357.5 748.8999633789063 -354.6000061035156 745.3999633789063 C -353.2383422851563 743.756591796875 -346.3869323730469 743.2816772460938 -339.4288940429688 743.2816772460938 C -331.5681762695313 743.2816772460938 -323.5713500976563 743.8877563476563 -323.2000122070313 744.0999755859375 C -322.5 744.5 -308.9000244140625 756.0999755859375 -307.5 758.0999755859375 C -306.0999755859375 760.0999755859375 -306.2999877929688 761 -306.2999877929688 761 C -306.2999877929688 761 -306.1000061035156 761.9000244140625 -307.5 763.9000244140625 C -308.8999938964844 765.9000244140625 -322.5000305175781 777.4998779296875 -323.2000122070313 777.89990234375 C -323.5713500976563 778.1121215820313 -331.5673522949219 778.7183837890625 -339.4289245605469 778.7182006835938 Z" stroke="none" fill="#fff"/>
        </g>
      </g>
      <g id="g12">
        <g id="path8" fill="none">
          <path d="M-379.8,793c2,1.4,2.9,1.2,2.9,1.2s.9.2,2.9-1.2,13.6-15,14-15.7,2.2-28.5-1.3-31.4-15.6-2.6-15.6-2.6-12.1-.2-15.6,2.6-1.7,30.7-1.3,31.4S-381.8,791.6-379.8,793Z" stroke="none"/>
          <path d="M -376.7155151367188 792.1922607421875 C -376.5204772949219 792.1415405273438 -376.0063781738281 791.963134765625 -375.1469421386719 791.3615112304688 C -375.0348815917969 791.2830200195313 -373.8854370117188 790.4039916992188 -368.1085510253906 783.8031005859375 C -365.0455017089844 780.3031005859375 -362.6034851074219 777.3903198242188 -361.8739624023438 776.4695434570313 C -361.6808471679688 774.9631958007813 -361.2333374023438 768.8834228515625 -361.1856994628906 762.1884155273438 C -361.0977172851563 749.8146362304688 -362.4533081054688 747.623291015625 -362.6084594726563 747.4136962890625 C -363.0751647949219 747.0440063476563 -364.5742492675781 746.1930541992188 -368.8441467285156 745.6802978515625 C -371.6636047363281 745.3417358398438 -374.4984130859375 745.2911987304688 -375.937255859375 745.2911987304688 C -376.5074768066406 745.2911987304688 -376.847412109375 745.29931640625 -376.8503723144531 745.2993774414063 L -376.8917236328125 745.3003540039063 L -376.9327087402344 745.2997436523438 C -376.9344787597656 745.2996826171875 -377.1134338378906 745.296875 -377.4268188476563 745.296875 C -378.54833984375 745.296875 -381.480712890625 745.3329467773438 -384.4797973632813 745.6673583984375 C -389.0943603515625 746.181884765625 -390.7057495117188 747.0480346679688 -391.2095642089844 747.4297485351563 C -391.37744140625 747.6637573242188 -392.7048645019531 749.9091186523438 -392.6139221191406 762.1998291015625 C -392.566650390625 768.5906982421875 -392.1385803222656 774.8726806640625 -391.9275817871094 776.4675903320313 C -391.199951171875 777.38623046875 -388.756591796875 780.3007202148438 -385.6914367675781 783.8031005859375 C -379.91455078125 790.4039916992188 -378.7651062011719 791.2830200195313 -378.6530456542969 791.3615112304688 C -377.7937622070313 791.9630737304688 -377.2796936035156 792.1414794921875 -377.0845947265625 792.1922607421875 L -376.9002380371094 792.1512451171875 L -376.7155151367188 792.1922607421875 M -376.7644653320313 794.2098999023438 C -376.8554992675781 794.2098999023438 -376.8999938964844 794.2000122070313 -376.8999938964844 794.2000122070313 C -376.8999938964844 794.2000122070313 -376.9444274902344 794.2098999023438 -377.0355224609375 794.2098999023438 C -377.3543395996094 794.2098999023438 -378.2444458007813 794.0888671875 -379.7999877929688 793 C -381.7999877929688 791.5999755859375 -393.3999938964844 778 -393.7999877929688 777.2999877929688 C -394.2000122070313 776.5999755859375 -396 748.699951171875 -392.5 745.8999633789063 C -389.4375 743.449951171875 -379.7906799316406 743.296875 -377.4267883300781 743.296875 C -377.089111328125 743.296875 -376.8999938964844 743.2999877929688 -376.8999938964844 743.2999877929688 C -376.8999938964844 743.2999877929688 -376.544677734375 743.2911987304688 -375.937255859375 743.2911987304688 C -373.0030517578125 743.2911987304688 -364.19970703125 743.497314453125 -361.2999877929688 745.8999633789063 C -357.7999877929688 748.7999877929688 -359.6000061035156 776.5999755859375 -360 777.2999877929688 C -360.3999938964844 778 -372 791.5999755859375 -374 793 C -375.5556640625 794.0889892578125 -376.4457397460938 794.2098999023438 -376.7644653320313 794.2098999023438 Z" stroke="none" fill="#fff"/>
        </g>
        <g id="path10" fill="none" opacity="0.25">
          <path d="M-379.8,793c2,1.4,2.9,1.2,2.9,1.2s.9.2,2.9-1.2c1.3-.9,6.6-6.9,10.3-11.2a27.841,27.841,0,0,0-13.2-3.4,26.733,26.733,0,0,0-13.2,3.4C-386.4,786.1-381.1,792.1-379.8,793Z" stroke="none"/>
          <path d="M -376.7155151367188 792.1922607421875 C -376.5204772949219 792.1415405273438 -376.0063781738281 791.963134765625 -375.1469421386719 791.361572265625 L -375.1409912109375 791.357421875 L -375.1384887695313 791.3556518554688 C -374.5162963867188 790.9229736328125 -371.7102355957031 787.9721069335938 -366.9231567382813 782.468994140625 C -370.1290893554688 781.1102294921875 -373.5345458984375 780.3999633789063 -376.9000244140625 780.3999633789063 C -379.0997009277344 780.3999633789063 -381.2645568847656 780.6727294921875 -383.3344421386719 781.210693359375 C -384.5583801269531 781.5287475585938 -385.7516479492188 781.940185546875 -386.902099609375 782.4400024414063 C -382.0994262695313 787.9619140625 -379.2846984863281 790.9222412109375 -378.6615600585938 791.3556518554688 L -378.6572875976563 791.3585815429688 L -378.6530456542969 791.361572265625 C -377.7937622070313 791.9630737304688 -377.2796936035156 792.1414794921875 -377.0845947265625 792.1922607421875 L -376.9002380371094 792.1512451171875 L -376.7155151367188 792.1922607421875 M -376.7644653320313 794.2098999023438 C -376.8554992675781 794.2098999023438 -376.8999938964844 794.2000122070313 -376.8999938964844 794.2000122070313 C -376.8999938964844 794.2000122070313 -376.9444274902344 794.2098999023438 -377.0355224609375 794.2098999023438 C -377.3543395996094 794.2098999023438 -378.2444458007813 794.0889282226563 -379.7999877929688 793 C -381.1000061035156 792.0999755859375 -386.3999938964844 786.0999755859375 -390.1000366210938 781.7999877929688 C -386.2000122070313 779.5999755859375 -381.7000122070313 778.3999633789063 -376.9000244140625 778.3999633789063 C -372.1000061035156 778.3999633789063 -367.6000061035156 779.7000122070313 -363.7000122070313 781.7999877929688 C -367.3999938964844 786.0999755859375 -372.7000122070313 792.0999755859375 -374 793 C -375.5556640625 794.0889892578125 -376.4457397460938 794.2098999023438 -376.7644653320313 794.2098999023438 Z" stroke="none" fill="#fff"/>
        </g>
      </g>
      <g id="g18">
        <g id="path14" fill="none">
          <path d="M-256.1,745.5c-2.9-3.5-30.7-1.7-31.4-1.3s-14.3,12-15.7,14-1.2,2.9-1.2,2.9-.2.9,1.2,2.9,15,13.6,15.7,14,28.5,2.2,31.4-1.3,2.6-15.6,2.6-15.6S-253.2,749-256.1,745.5Z" stroke="none"/>
          <path d="M -271.2738342285156 745.3817138671875 C -278.140380859375 745.3817138671875 -285.006103515625 745.8538818359375 -286.6677856445313 746.0725708007813 C -287.5866394042969 746.8004150390625 -290.5009155273438 749.2435913085938 -294.0030517578125 752.3085327148438 C -300.60400390625 758.08544921875 -301.4830627441406 759.2349243164063 -301.5615539550781 759.3469848632813 C -302.1631164550781 760.206298828125 -302.341552734375 760.7203979492188 -302.3922729492188 760.9154663085938 L -302.3512268066406 761.1000366210938 L -302.3922729492188 761.2846069335938 C -302.341552734375 761.4796752929688 -302.1631164550781 761.9937744140625 -301.5615539550781 762.8530883789063 C -301.4830627441406 762.9651489257813 -300.60400390625 764.1146240234375 -294.0030822753906 769.8915405273438 C -290.5009155273438 772.9564819335938 -287.586669921875 775.399658203125 -286.6678161621094 776.1275024414063 C -285.005859375 776.34619140625 -278.1388854980469 776.818359375 -271.2710876464844 776.818359375 C -259.8790588378906 776.818359375 -257.8157348632813 775.541015625 -257.6137084960938 775.3915405273438 C -257.1754760742188 774.8392944335938 -256.1724548339844 773.0008544921875 -255.7085266113281 767.4564208984375 C -255.4307556152344 764.1370239257813 -255.4986877441406 761.1787109375 -255.4993896484375 761.149658203125 L -255.5006103515625 761.10009765625 L -255.4993896484375 761.050537109375 C -255.4986572265625 761.0213623046875 -255.4302368164063 758.0948486328125 -255.7056579589844 754.7780151367188 C -256.1681518554688 749.2077026367188 -257.174072265625 747.362548828125 -257.6136474609375 746.80859375 C -257.8157043457031 746.6591796875 -259.8793334960938 745.3818969726563 -271.2728881835938 745.3817138671875 L -271.2738342285156 745.3817138671875 M -271.2711181640625 743.3817138671875 C -264.31396484375 743.3818359375 -257.4615173339844 743.8568115234375 -256.1000061035156 745.5 C -253.2000122070313 749 -253.5 761.10009765625 -253.5 761.10009765625 C -253.5 761.10009765625 -253.2000122070313 773.2000732421875 -256.1000061035156 776.7000732421875 C -257.461669921875 778.343505859375 -264.3130187988281 778.818359375 -271.2710571289063 778.818359375 C -279.1317749023438 778.818359375 -287.128662109375 778.2122802734375 -287.5 778.0000610351563 C -288.2000122070313 777.6000366210938 -301.7999877929688 766.0000610351563 -303.2000122070313 764.0000610351563 C -304.6000366210938 762.0000610351563 -304.4000244140625 761.1000366210938 -304.4000244140625 761.1000366210938 C -304.4000244140625 761.1000366210938 -304.6000366210938 760.2000122070313 -303.2000122070313 758.2000122070313 C -301.7999877929688 756.2000122070313 -288.2000122070313 744.6000366210938 -287.5 744.2000122070313 C -287.128662109375 743.98779296875 -279.1326904296875 743.3815307617188 -271.2711181640625 743.3817138671875 Z" stroke="none" fill="#fff"/>
        </g>
      </g>
      <g id="g24">
        <g id="path20" fill="none">
          <path d="M-411.4,744.5c-2-1.4-2.9-1.2-2.9-1.2s-.9-.2-2.9,1.2-13.6,15-14,15.7-2.2,28.5,1.3,31.4,15.6,2.6,15.6,2.6,12.1.3,15.6-2.6,1.7-30.7,1.3-31.4S-409.4,745.9-411.4,744.5Z" stroke="none"/>
          <path d="M -414.4844665527344 745.3077392578125 C -414.6795043945313 745.3584594726563 -415.193603515625 745.536865234375 -416.0530395507813 746.1384887695313 C -416.1651000976563 746.2169799804688 -417.3145446777344 747.0960083007813 -423.0914306640625 753.6968994140625 C -426.1544799804688 757.1968994140625 -428.5964965820313 760.1096801757813 -429.3260192871094 761.0304565429688 C -429.5191345214844 762.5368041992188 -429.9666442871094 768.6165771484375 -430.0142822265625 775.3115844726563 C -430.1022644042969 787.6853637695313 -428.7466735839844 789.876708984375 -428.5915222167969 790.0863037109375 C -428.1248168945313 790.4559936523438 -426.625732421875 791.3069458007813 -422.3558349609375 791.8197021484375 C -419.536376953125 792.1582641601563 -416.7015686035156 792.2088012695313 -415.2627258300781 792.2088012695313 C -414.6925048828125 792.2088012695313 -414.3525695800781 792.20068359375 -414.349609375 792.2006225585938 L -414.3000183105469 792.1994018554688 L -414.2508544921875 792.2006225585938 C -414.2474670410156 792.20068359375 -413.9070434570313 792.2088012695313 -413.3375244140625 792.2088012695313 C -411.8987121582031 792.2088012695313 -409.0640258789063 792.1582641601563 -406.244873046875 791.81982421875 C -401.9745178222656 791.3070678710938 -400.4751892089844 790.4559936523438 -400.0084533691406 790.0863037109375 C -399.8533020019531 789.876708984375 -398.4977111816406 787.6853637695313 -398.585693359375 775.3115844726563 C -398.63330078125 768.6165771484375 -399.0808410644531 762.5368041992188 -399.2739562988281 761.0304565429688 C -400.0034790039063 760.1096801757813 -402.4454956054688 757.1968994140625 -405.508544921875 753.6968994140625 C -411.2854309082031 747.0960083007813 -412.4348754882813 746.2169799804688 -412.5469360351563 746.1384887695313 C -413.4062194824219 745.5369262695313 -413.9202880859375 745.3585205078125 -414.1153869628906 745.3077392578125 L -414.2997436523438 745.3487548828125 L -414.4844665527344 745.3077392578125 M -414.4355163574219 743.2901000976563 C -414.344482421875 743.2901000976563 -414.2999877929688 743.2999877929688 -414.2999877929688 743.2999877929688 C -414.2999877929688 743.2999877929688 -414.2555541992188 743.2901000976563 -414.1644592285156 743.2901000976563 C -413.8456420898438 743.2901000976563 -412.9555358886719 743.4111328125 -411.3999938964844 744.5 C -409.3999938964844 745.9000244140625 -397.7999877929688 759.5 -397.3999938964844 760.2000122070313 C -396.9999694824219 760.9000244140625 -395.1999816894531 788.7000122070313 -398.6999816894531 791.6000366210938 C -401.6001281738281 794.0029907226563 -410.4046325683594 794.2088012695313 -413.3375244140625 794.2088012695313 C -413.9441528320313 794.2088012695313 -414.2999877929688 794.2000122070313 -414.2999877929688 794.2000122070313 C -414.2999877929688 794.2000122070313 -414.6553039550781 794.2088012695313 -415.2627258300781 794.2088012695313 C -418.1969299316406 794.2088012695313 -427.0002746582031 794.002685546875 -429.8999938964844 791.6000366210938 C -433.3999938964844 788.7000122070313 -431.5999755859375 760.9000244140625 -431.1999816894531 760.2000122070313 C -430.7999877929688 759.5 -419.1999816894531 745.9000244140625 -417.1999816894531 744.5 C -415.6443176269531 743.4110107421875 -414.7542419433594 743.2901000976563 -414.4355163574219 743.2901000976563 Z" stroke="none" fill="#fff"/>
        </g>
      </g>
    </g>
    <g id="g52">
      <g id="g32">
        <path id="path28" d="M-307.5,816.9c1.4-2,1.2-2.9,1.2-2.9s.2-.9-1.2-2.9-15-13.6-15.7-14-28.5-2.2-31.4,1.3-2.6,15.6-2.6,15.6-.3,12.1,2.6,15.6,30.7,1.7,31.4,1.3S-308.9,818.9-307.5,816.9Z" fill="#fff"/>
        <path id="path30" d="M-307.5,816.9c1.4-2,1.2-2.9,1.2-2.9s.2-.9-1.2-2.9c-.9-1.3-6.9-6.6-11.2-10.3a27.841,27.841,0,0,0-3.4,13.2,26.733,26.733,0,0,0,3.4,13.2C-314.4,823.5-308.4,818.2-307.5,816.9Z" fill="#fff" opacity="0.25"/>
      </g>
      <g id="g38">
        <path id="path34" d="M-379.8,846c2,1.4,2.9,1.2,2.9,1.2s.9.2,2.9-1.2,13.6-15,14-15.7,2.2-28.5-1.3-31.4-15.6-2.6-15.6-2.6-12.1-.2-15.6,2.6-1.7,30.7-1.3,31.4S-381.8,844.6-379.8,846Z" fill="#fff"/>
        <path id="path36" d="M-379.8,846c2,1.4,2.9,1.2,2.9,1.2s.9.2,2.9-1.2c1.3-.9,6.6-6.9,10.3-11.2a27.841,27.841,0,0,0-13.2-3.4,26.733,26.733,0,0,0-13.2,3.4C-386.4,839.1-381.1,845.1-379.8,846Z" fill="#fff" opacity="0.25"/>
      </g>
      <g id="g44">
        <path id="path40" d="M-256.1,798.4c-2.9-3.5-30.7-1.7-31.4-1.3s-14.3,12-15.7,14-1.2,2.9-1.2,2.9-.2.9,1.2,2.9,15,13.6,15.7,14,28.5,2.2,31.4-1.3,2.6-15.6,2.6-15.6S-253.2,801.9-256.1,798.4Z" fill="#fff"/>
        <path id="path42" d="M-291.9,800.9c-4.3,3.7-10.3,9-11.2,10.3-1.4,2-1.2,2.9-1.2,2.9s-.2.9,1.2,2.9c.9,1.3,6.9,6.6,11.2,10.3a27.841,27.841,0,0,0,3.4-13.2A27.84,27.84,0,0,0-291.9,800.9Z" fill="#fff" opacity="0.25"/>
      </g>
      <g id="g50">
        <path id="path46" d="M-411.4,797.5c-2-1.4-2.9-1.2-2.9-1.2s-.9-.2-2.9,1.2-13.6,15-14,15.7-2.2,28.5,1.3,31.4,15.6,2.6,15.6,2.6,12.1.3,15.6-2.6,1.7-30.7,1.3-31.4S-409.4,798.9-411.4,797.5Z" fill="#fff"/>
        <path id="path48" d="M-411.4,797.5c-2-1.4-2.9-1.2-2.9-1.2s-.9-.2-2.9,1.2c-1.3.9-6.6,6.9-10.3,11.2a27.841,27.841,0,0,0,13.2,3.4,26.733,26.733,0,0,0,13.2-3.4C-404.8,804.4-410.1,798.4-411.4,797.5Z" fill="#fff" opacity="0.25"/>
      </g>
    </g>
  </g>
</svg>

<svg xmlns="http://www.w3.org/2000/svg" width="178.527" height="103.928" viewBox="0 0 178.527 103.928">
  <g id="dpad" transform="translate(432.018 -743.282)">
    <g id="g26">
      <g id="g6">
        <g id="path2">
          <path id="Path_1" data-name="Path 1" d="M-307.5,763.9c1.4-2,1.2-2.9,1.2-2.9s.2-.9-1.2-2.9-15-13.6-15.7-14-28.5-2.2-31.4,1.3-2.6,15.6-2.6,15.6-.3,12.1,2.6,15.6,30.7,1.7,31.4,1.3S-308.9,765.9-307.5,763.9Z" fill="#6eebff"/>
          <path id="Path_2" data-name="Path 2" d="M-339.426,776.718c6.866,0,13.732-.472,15.394-.691.919-.728,3.833-3.171,7.335-6.236,6.6-5.776,7.48-6.926,7.559-7.038a5.233,5.233,0,0,0,.83-1.568l-.041-.185.041-.185a5.233,5.233,0,0,0-.83-1.568c-.079-.112-.958-1.262-7.559-7.039-3.5-3.064-6.416-5.508-7.335-6.235-1.662-.219-8.529-.691-15.4-.691-11.393,0-13.456,1.277-13.657,1.426-.439.553-1.442,2.391-1.9,7.936-.278,3.319-.21,6.277-.21,6.306l0,.05,0,.049c0,.03-.069,2.956.207,6.273.462,5.57,1.468,7.415,1.908,7.969.2.15,2.265,1.427,13.659,1.427h0m0,2c-6.957,0-13.809-.475-15.171-2.118-2.9-3.5-2.6-15.6-2.6-15.6s-.3-12.1,2.6-15.6c1.362-1.643,8.213-2.118,15.171-2.118a131.867,131.867,0,0,1,16.229.818c.7.4,14.3,12,15.7,14s1.2,2.9,1.2,2.9.2.9-1.2,2.9-15,13.6-15.7,14A131.851,131.851,0,0,1-339.429,778.718Z" fill="#6eebff"/>
        </g>
      </g>
      <g id="g12">
        <g id="path8">
          <path id="Path_3" data-name="Path 3" d="M-379.8,793c2,1.4,2.9,1.2,2.9,1.2s.9.2,2.9-1.2,13.6-15,14-15.7,2.2-28.5-1.3-31.4-15.6-2.6-15.6-2.6-12.1-.2-15.6,2.6-1.7,30.7-1.3,31.4S-381.8,791.6-379.8,793Z" fill="#6eebff"/>
          <path id="Path_4" data-name="Path 4" d="M-376.716,792.192a5.221,5.221,0,0,0,1.569-.83c.112-.079,1.262-.958,7.038-7.559,3.063-3.5,5.506-6.413,6.235-7.333.193-1.507.641-7.587.688-14.282.088-12.373-1.267-14.565-1.422-14.774-.467-.37-1.966-1.221-6.236-1.734a62.882,62.882,0,0,0-7.093-.389c-.57,0-.91.008-.913.008h-.083s-.18,0-.494,0a67.9,67.9,0,0,0-7.053.37c-4.614.515-6.226,1.381-6.73,1.763-.167.234-1.495,2.479-1.4,14.77.047,6.391.475,12.673.686,14.268.728.918,3.171,3.833,6.237,7.335,5.776,6.6,6.926,7.48,7.038,7.559a5.261,5.261,0,0,0,1.568.83l.185-.041.184.041m-.048,2.018a.7.7,0,0,1-.136-.01.686.686,0,0,1-.136.01A5.26,5.26,0,0,1-379.8,793c-2-1.4-13.6-15-14-15.7s-2.2-28.6,1.3-31.4c3.062-2.45,12.709-2.6,15.073-2.6.338,0,.527,0,.527,0s.355-.009.963-.009c2.934,0,11.737.206,14.637,2.609,3.5,2.9,1.7,30.7,1.3,31.4s-12,14.3-14,15.7A5.26,5.26,0,0,1-376.764,794.21Z" fill="#6eebff"/>
        </g>
      </g>
      <g id="g18">
        <g id="path14">
          <path id="Path_7" data-name="Path 7" d="M-256.1,745.5c-2.9-3.5-30.7-1.7-31.4-1.3s-14.3,12-15.7,14-1.2,2.9-1.2,2.9-.2.9,1.2,2.9,15,13.6,15.7,14,28.5,2.2,31.4-1.3,2.6-15.6,2.6-15.6S-253.2,749-256.1,745.5Z" fill="#6eebff"/>
          <path id="Path_8" data-name="Path 8" d="M-271.274,745.382c-6.866,0-13.732.472-15.394.691-.919.727-3.833,3.171-7.335,6.236-6.6,5.776-7.48,6.926-7.559,7.038a5.234,5.234,0,0,0-.83,1.568l.041.185-.041.185a5.234,5.234,0,0,0,.83,1.568c.079.112.958,1.262,7.559,7.039,3.5,3.064,6.416,5.508,7.335,6.236,1.662.218,8.529.69,15.4.69,11.392,0,13.455-1.277,13.657-1.426.439-.553,1.442-2.391,1.905-7.936.278-3.319.21-6.277.21-6.306l0-.05,0-.049c0-.03.069-2.956-.207-6.273-.462-5.57-1.468-7.415-1.908-7.969-.2-.15-2.265-1.427-13.659-1.427h0m0-2c6.957,0,13.809.475,15.171,2.118,2.9,3.5,2.6,15.6,2.6,15.6s.3,12.1-2.6,15.6c-1.362,1.644-8.213,2.118-15.171,2.118A131.868,131.868,0,0,1-287.5,778c-.7-.4-14.3-12-15.7-14s-1.2-2.9-1.2-2.9-.2-.9,1.2-2.9,15-13.6,15.7-14A131.838,131.838,0,0,1-271.271,743.382Z" fill="none"/>
        </g>
      </g>
      <g id="g24">
        <g id="path20">
          <path id="Path_9" data-name="Path 9" d="M-411.4,744.5c-2-1.4-2.9-1.2-2.9-1.2s-.9-.2-2.9,1.2-13.6,15-14,15.7-2.2,28.5,1.3,31.4,15.6,2.6,15.6,2.6,12.1.3,15.6-2.6,1.7-30.7,1.3-31.4S-409.4,745.9-411.4,744.5Z" fill="#00dcff"/>
          <path id="Path_10" data-name="Path 10" d="M-414.484,745.308a5.221,5.221,0,0,0-1.569.83c-.112.079-1.262.958-7.038,7.559-3.063,3.5-5.505,6.413-6.235,7.333-.193,1.507-.641,7.587-.688,14.282-.088,12.373,1.267,14.565,1.422,14.774.467.37,1.966,1.221,6.236,1.734a62.882,62.882,0,0,0,7.093.389c.57,0,.91-.008.913-.008l.05,0,.049,0s.344.008.913.008a62.871,62.871,0,0,0,7.093-.389c4.27-.513,5.77-1.364,6.237-1.734.155-.209,1.51-2.4,1.422-14.774-.047-6.7-.495-12.775-.688-14.282-.729-.92-3.171-3.833-6.235-7.333-5.776-6.6-6.926-7.48-7.038-7.559a5.262,5.262,0,0,0-1.568-.83l-.185.041-.184-.041m.048-2.018a.686.686,0,0,1,.136.01.686.686,0,0,1,.136-.01,5.26,5.26,0,0,1,2.764,1.21c2,1.4,13.6,15,14,15.7s2.2,28.5-1.3,31.4c-2.9,2.4-11.7,2.609-14.638,2.609-.606,0-.962-.009-.962-.009s-.355.009-.963.009c-2.934,0-11.737-.206-14.637-2.609-3.5-2.9-1.7-30.7-1.3-31.4s12-14.3,14-15.7A5.26,5.26,0,0,1-414.436,743.29Z" fill="#6eebff"/>
        </g>
      </g>
    </g>
    <g id="g52">
      <g id="g32">
        <path id="path28" d="M-307.5,816.9c1.4-2,1.2-2.9,1.2-2.9s.2-.9-1.2-2.9-15-13.6-15.7-14-28.5-2.2-31.4,1.3-2.6,15.6-2.6,15.6-.3,12.1,2.6,15.6,30.7,1.7,31.4,1.3S-308.9,818.9-307.5,816.9Z" fill="#fff"/>
        <path id="path30" d="M-307.5,816.9c1.4-2,1.2-2.9,1.2-2.9s.2-.9-1.2-2.9c-.9-1.3-6.9-6.6-11.2-10.3a27.841,27.841,0,0,0-3.4,13.2,26.732,26.732,0,0,0,3.4,13.2C-314.4,823.5-308.4,818.2-307.5,816.9Z" fill="#fff" opacity="0.25"/>
      </g>
      <g id="g38">
        <path id="path34" d="M-379.8,846c2,1.4,2.9,1.2,2.9,1.2s.9.2,2.9-1.2,13.6-15,14-15.7,2.2-28.5-1.3-31.4-15.6-2.6-15.6-2.6-12.1-.2-15.6,2.6-1.7,30.7-1.3,31.4S-381.8,844.6-379.8,846Z" fill="#fff"/>
        <path id="path36" d="M-379.8,846c2,1.4,2.9,1.2,2.9,1.2s.9.2,2.9-1.2c1.3-.9,6.6-6.9,10.3-11.2a27.841,27.841,0,0,0-13.2-3.4,26.734,26.734,0,0,0-13.2,3.4C-386.4,839.1-381.1,845.1-379.8,846Z" fill="#fff" opacity="0.25"/>
      </g>
      <g id="g44">
        <path id="path40" d="M-256.1,798.4c-2.9-3.5-30.7-1.7-31.4-1.3s-14.3,12-15.7,14-1.2,2.9-1.2,2.9-.2.9,1.2,2.9,15,13.6,15.7,14,28.5,2.2,31.4-1.3,2.6-15.6,2.6-15.6S-253.2,801.9-256.1,798.4Z" fill="#fff"/>
        <path id="path42" d="M-291.9,800.9c-4.3,3.7-10.3,9-11.2,10.3-1.4,2-1.2,2.9-1.2,2.9s-.2.9,1.2,2.9c.9,1.3,6.9,6.6,11.2,10.3a27.841,27.841,0,0,0,3.4-13.2,27.84,27.84,0,0,0-3.4-13.2Z" fill="#fff" opacity="0.25"/>
      </g>
      <g id="g50">
        <path id="path46" d="M-411.4,797.5c-2-1.4-2.9-1.2-2.9-1.2s-.9-.2-2.9,1.2-13.6,15-14,15.7-2.2,28.5,1.3,31.4,15.6,2.6,15.6,2.6,12.1.3,15.6-2.6,1.7-30.7,1.3-31.4S-409.4,798.9-411.4,797.5Z" fill="#fff"/>
        <path id="path48" d="M-411.4,797.5c-2-1.4-2.9-1.2-2.9-1.2s-.9-.2-2.9,1.2c-1.3.9-6.6,6.9-10.3,11.2a27.841,27.841,0,0,0,13.2,3.4,26.733,26.733,0,0,0,13.2-3.4C-404.8,804.4-410.1,798.4-411.4,797.5Z" fill="#fff" opacity="0.25"/>
      </g>
    </g>
  </g>
</svg>
